Obsidian-SemiLight/actions/16s/configure-shortcuts.svg

<svg viewBox="0 0 16 16" xmlns="http://www.w3.org/2000/svg"><path d="m10 2.5c-.9319805 0-1.7155373.6373007-1.9375 1.5h-6.0625v1h6.0625c.2219627.8626993 1.0055195 1.5 1.9375 1.5.931981 0 1.715537-.6373007 1.9375-1.5h2.0625v-1h-2.0625c-.221963-.8626993-1.005519-1.5-1.9375-1.5zm-5 7c-.9319809 0-1.7155374.637301-1.9375 1.5h-1.0625v1h1.0625c.2219626.862699 1.0055191 1.5 1.9375 1.5s1.7155374-.637301 1.9375-1.5h.0625 2 5v-1h-5-2-.0625c-.2219626-.862699-1.0055191-1.5-1.9375-1.5zm0 1c.55228 0 1 .44772 1 1s-.44772 1-1 1-1-.44772-1-1 .44772-1 1-1z" fill="#4d4d4d"/></svg>

<svg xmlns="http://www.w3.org/2000/svg" viewBox="0 0 16 16">
  <defs id="defs3051">
    <style type="text/css" id="current-color-scheme">
      .ColorScheme-Text {
        color:#4d4d4d;
      }
      </style>
  </defs>
 <path style="fill:currentColor;fill-opacity:1;stroke:none" 
       d="M 10 2.5 C 9.0680195 2.5 8.2844627 3.1373007 8.0625 4 L 2 4 L 2 5 L 8.0625 5 C 8.2844627 5.8626993 9.0680195 6.5 10 6.5 C 10.931981 6.5 11.715537 5.8626993 11.9375 5 L 14 5 L 14 4 L 11.9375 4 C 11.715537 3.1373007 10.931981 2.5 10 2.5 z M 5 9.5 C 4.0680191 9.5 3.2844626 10.137301 3.0625 11 L 2 11 L 2 12 L 3.0625 12 C 3.2844626 12.862699 4.0680191 13.5 5 13.5 C 5.9319809 13.5 6.7155374 12.862699 6.9375 12 L 7 12 L 9 12 L 14 12 L 14 11 L 9 11 L 7 11 L 6.9375 11 C 6.7155374 10.137301 5.9319809 9.5 5 9.5 z M 5 10.5 C 5.55228 10.5 6 10.94772 6 11.5 C 6 12.05228 5.55228 12.5 5 12.5 C 4.44772 12.5 4 12.05228 4 11.5 C 4 10.94772 4.44772 10.5 5 10.5 z "
     class="ColorScheme-Text"
     />
</svg>
